X:1
T:[ID 1-107b]
T:[ID 1-107b]
T:Bezeichnung standardisiert: Englisch Offeria; Englisch Offeria
T:Urheber unbekannt Datum in der hier transkribierten schriftlichen Quelle: vermutlich vor 1767
C:Urheber unbekannt
C:Datum in der hier transkribierten schriftlichen Quelle: vermutlich vor 1767
L:1/8
M:2/2
K:G
V:1 treble 
V:1
 ga | g2 d2 d2 ag | e2 c2 c2 e2 | d2 c2 dcBA | B2 AB GABc | d2 B2 c2 d2 | e4 f4 | g2 fe e4 | d6 :: %9
 fg | a2 f2 g2 a2 | b2 e2 e2 fe | d2 B2 c2 d2 | B3 A GABc | d2 B2 c2 d2 | e4 f4 | gfge fgaf | g6 :| %18

